public/avatar/shoe/48.svg

<svg xmlns:xlink="http://www.w3.org/1999/xlink" height="38.3" width="36.05" xmlns="http://www.w3.org/2000/svg"><use height="16.8" transform="translate(9.25 12.35)" width="21.7" xlink:href="#a"/><defs><g id="a"><path d="M3.25.2q2.9.65 3.25 7.2l.25 2.6q-.25.9-1.55 1.7l-1.5.45-1.25.25Q.9 12.65.5 11.1l-.55-6.7Q-.6-.25 1.2-.35q.6-.1 2.05.55" fill-rule="evenodd" transform="translate(14.55 2.5)"/><path d="M2.95-1.35Q4.2-1 5.05.85q2 4.2 1.45 7.3-.35 1.75-2.75 2.5L-1.3 12.4l-2.6 1.15-5.6.5q-2.8-.1-3.85-1.3l-.45-.85-.2-1.25q-.05-1.5 1.55-3.1l3.2-3.2 3.9-3.9q2.4-2.05 5-2.05l3.3.25" fill-rule="evenodd" transform="translate(14.55 2.5)"/><path d="m-1.35-1.8 3.65.3q2 .65 2.55 1.85.85 1.7.85 3.45l-.1 1.95Q5.55 6.4 4 8.1 2.65 9.6 1.7 10l-2.8 1.1.05-.9.15.5q.15-2.6-.35-3.5-.55-1.05-2.95-.75l-2.75 1.2q-1.65.75-3.3-.5L-9.2 5.8q.15-.5 0-.7-.5-.5-.55-.45L-8 2.85l1.6-1.55 1.35-1.35q2-1.5 3.7-1.75" fill="#c5d0d4" fill-rule="evenodd" transform="translate(14.55 2.5)"/><path d="M4 8.1q.7-2.35-1.5-4.45L-1.35 1.3q-2.2-1.1-2-1.85.2-1 2.5-1.15l3 .15q2.8.6 3.7 3.3.5 1.6.25 2.65Q5.8 6 4 8.1" fill="#919191" fill-rule="evenodd" transform="translate(14.55 2.5)"/><path d="M5.7 2.5v.05q1.95 2.75.65 5.25-.45.85-2 1.6-1.55.8-2.35.45-.05-1.7.8-3.95.9-2.15 2.9-3.4m-12.2 7q1.15-.1 1.9.85.75.9-.2 1.85-.9.85-3.65.85-4 0-5.05-1.6-.75-1.3.3-3.25 1.1-1.6 1.45-1.55-.45.5-.55 1.7-.15 1.25.35 1.4l5.45-.25" fill="#525252" fill-rule="evenodd" transform="translate(14.55 2.5)"/><path d="m-.15-1.8 2.55.3q1.55.4 1.45 1.5-.25 3.25-5.5 2.85.15 0-.25-1.1-.5-.75-1.2-.8l-3.15.15 1.4-1.55q1.55-1.1 3.25-1.3l1.45-.05" fill-rule="evenodd" transform="translate(14.55 2.5)"/><path d="M5.8 9.7q.85-2.4.85-4.4 0-2.05-.6-3.05.25-2.8-3.15-3.8-4.15-1.2-7.25.85-.95.6-3.55 3.45l-3.95 4.05q-2.5 1.9-2.15 3.7.3 1.55 1.15 2.2-.35.5 2.4.95 4.3.55 7.35-.95l2.7-1.45 1.65-.4 1.55.05" fill="none" stroke="#000" stroke-linecap="round" stroke-linejoin="round" transform="translate(14.55 2.5)"/><path d="m-5.15 1.2-4 4.35" fill="none" stroke="#fff" stroke-linecap="round" stroke-linejoin="round" transform="translate(14.55 2.5)"/><path d="M-13.7 9.65q-.3-.55.5-1.7.85-1.05 1.25-.5.45.6-.5 1.7-.9 1.05-1.25.5" fill="#bdbdbd" fill-rule="evenodd" transform="translate(14.55 2.5)"/><path d="M4.05 7.15q0-2.1-.75-2.6L4.75 3.2q1.05-1.1 1.15.45.4 2.8-.05 4.25-.4 1.7-2.05 1.8l.25-2.55" fill="#363636" fill-rule="evenodd" transform="translate(14.55 2.5)"/></g></defs></svg>

<?xml version="1.0" encoding="UTF-8" standalone="no"?>
<svg xmlns:xlink="http://www.w3.org/1999/xlink" height="38.3px" width="36.05px" xmlns="http://www.w3.org/2000/svg">
  <g transform="matrix(1.0, 0.0, 0.0, 1.0, 23.8, 14.85)">
    <use height="16.8" transform="matrix(1.0, 0.0, 0.0, 1.0, -14.55, -2.5)" width="21.7" xlink:href="#shape0"/>
  </g>
  <defs>
    <g id="shape0" transform="matrix(1.0, 0.0, 0.0, 1.0, 14.55, 2.5)">
      <path d="M3.25 0.2 Q6.15 0.85 6.5 7.4 L6.75 10.0 Q6.5 10.9 5.2 11.7 L3.7 12.15 2.45 12.4 Q0.9 12.65 0.5 11.1 L-0.05 4.4 Q-0.6 -0.25 1.2 -0.35 1.8 -0.45 3.25 0.2" fill="#000000" fill-rule="evenodd" stroke="none"/>
      <path d="M2.95 -1.35 Q4.2 -1.0 5.05 0.85 7.05 5.05 6.5 8.15 6.15 9.9 3.75 10.65 L-1.3 12.4 -3.9 13.55 -9.5 14.05 Q-12.3 13.95 -13.35 12.75 L-13.8 11.9 -14.0 10.65 Q-14.05 9.15 -12.45 7.55 L-9.25 4.35 -5.35 0.45 Q-2.95 -1.6 -0.35 -1.6 L2.95 -1.35" fill="#000000" fill-rule="evenodd" stroke="none"/>
      <path d="M-1.35 -1.8 L2.3 -1.5 Q4.3 -0.85 4.85 0.35 5.7 2.05 5.7 3.8 L5.6 5.75 Q5.55 6.4 4.0 8.1 2.65 9.6 1.7 10.0 L-1.1 11.1 -1.05 10.2 -0.9 10.7 Q-0.75 8.1 -1.25 7.2 -1.8 6.15 -4.2 6.45 L-6.95 7.65 Q-8.6 8.4 -10.25 7.15 L-9.2 5.8 Q-9.05 5.3 -9.2 5.1 -9.7 4.6 -9.75 4.65 L-8.0 2.85 -6.4 1.3 -5.05 -0.05 Q-3.05 -1.55 -1.35 -1.8" fill="#c5d0d4" fill-rule="evenodd" stroke="none"/>
      <path d="M4.0 8.1 Q4.7 5.75 2.5 3.65 L-1.35 1.3 Q-3.55 0.2 -3.35 -0.55 -3.15 -1.55 -0.85 -1.7 L2.15 -1.55 Q4.95 -0.95 5.85 1.75 6.35 3.35 6.1 4.4 5.8 6.0 4.0 8.1" fill="#919191" fill-rule="evenodd" stroke="none"/>
      <path d="M5.7 2.5 L5.7 2.55 Q7.65 5.3 6.35 7.8 5.9 8.65 4.35 9.4 2.8 10.2 2.0 9.85 1.95 8.15 2.8 5.9 3.7 3.75 5.7 2.5" fill="#525252" fill-rule="evenodd" stroke="none"/>
      <path d="M-6.5 9.5 Q-5.35 9.4 -4.6 10.35 -3.85 11.25 -4.8 12.2 -5.7 13.05 -8.45 13.05 -12.45 13.05 -13.5 11.45 -14.25 10.15 -13.2 8.2 -12.1 6.6 -11.75 6.65 -12.2 7.15 -12.3 8.35 -12.45 9.6 -11.95 9.75 L-6.5 9.5" fill="#525252" fill-rule="evenodd" stroke="none"/>
      <path d="M-0.15 -1.8 L2.4 -1.5 Q3.95 -1.1 3.85 0.0 3.6 3.25 -1.65 2.85 -1.5 2.85 -1.9 1.75 -2.4 1.0 -3.1 0.95 L-6.25 1.1 -4.85 -0.45 Q-3.3 -1.55 -1.6 -1.75 L-0.15 -1.8" fill="#000000" fill-rule="evenodd" stroke="none"/>
      <path d="M5.8 9.7 Q6.65 7.3 6.65 5.3 6.65 3.25 6.05 2.25 6.3 -0.55 2.9 -1.55 -1.25 -2.75 -4.35 -0.7 -5.3 -0.1 -7.9 2.75 L-11.85 6.8 Q-14.35 8.7 -14.0 10.5 -13.7 12.05 -12.85 12.7 -13.2 13.2 -10.45 13.65 -6.15 14.2 -3.1 12.7 L-0.4 11.25 1.25 10.85 2.8 10.9" fill="none" stroke="#000000" stroke-linecap="round" stroke-linejoin="round" stroke-width="1.0"/>
      <path d="M-5.15 1.2 L-9.15 5.55" fill="none" stroke="#ffffff" stroke-linecap="round" stroke-linejoin="round" stroke-width="1.0"/>
      <path d="M-13.7 9.65 Q-14.0 9.1 -13.2 7.95 -12.35 6.9 -11.95 7.45 -11.5 8.05 -12.45 9.15 -13.35 10.2 -13.7 9.65" fill="#bdbdbd" fill-rule="evenodd" stroke="none"/>
      <path d="M4.05 7.15 Q4.05 5.05 3.3 4.55 L4.75 3.2 Q5.8 2.1 5.9 3.65 6.3 6.45 5.85 7.9 5.45 9.6 3.8 9.7 L4.05 7.15" fill="#363636" fill-rule="evenodd" stroke="none"/>
    </g>
  </defs>
</svg>
